modules/feathericon/icons/twitter.svg

<?xml version="1.0" encoding="UTF-8"?>
<svg width="14px" height="12px" viewBox="0 0 14 12" version="1.1" xmlns="http://www.w3.org/2000/svg" xmlns:xlink="http://www.w3.org/1999/xlink">
    <!-- Generator: sketchtool 48.1 (47250) - http://www.bohemiancoding.com/sketch -->
    <title>twitter</title>
    <desc>Created with sketchtool.</desc>
    <defs></defs>
    <g id="brand" stroke="none" stroke-width="1" fill="none" fill-rule="evenodd">
        <g id="twitter" fill="#000000" fill-rule="nonzero">
            <path d="M4.3963091,11.3800001 C9.67748041,11.3800001 12.5672836,7.0004922 12.5672836,3.20902562 C12.5672836,3.08581696 12.5672836,2.9626083 12.5616832,2.83939963 C13.1217226,2.43617128 13.6089568,1.92653545 13.995384,1.3496949 C13.4801478,1.57931104 12.9257088,1.73052167 12.3432678,1.80332679 C12.9369096,1.45050198 13.3905415,0.884862214 13.6089568,0.212814963 C13.0545178,0.543238194 12.4384745,0.778454732 11.7832285,0.907263789 C11.2567915,0.347224413 10.5119391,0 9.6886812,0 C8.10376977,0 6.8156792,1.28809056 6.8156792,2.873002 C6.8156792,3.09701775 6.84368117,3.3154331 6.88848432,3.52824807 C4.50271658,3.4106398 2.38576774,2.26255908 0.96886812,0.526437013 C0.722450795,0.952066939 0.582440951,1.44490159 0.582440951,1.9713386 C0.582440951,2.96820869 1.09207678,3.84747051 1.85933073,4.36270674 C1.38889765,4.34590556 0.946466545,4.2170965 0.560039376,4.00428154 L0.560039376,4.04348429 C0.560039376,5.43238194 1.55130907,6.59726385 2.86180121,6.86048235 C2.62098428,6.92768708 2.36896656,6.96128944 2.10574805,6.96128944 C1.92093506,6.96128944 1.74172246,6.94448826 1.56811025,6.9108859 C1.93213585,8.05336622 2.99621066,8.8822245 4.25069886,8.90462607 C3.26502956,9.67748041 2.02734254,10.1367127 0.683248038,10.1367127 C0.453631894,10.1367127 0.22401575,10.1255119 0,10.0975099 C1.26568899,10.9039666 2.7777953,11.3800001 4.3963091,11.3800001" id="Shape"></path>
        </g>
    </g>
</svg>

<svg width="14" height="12" xmlns="http://www.w3.org/2000/svg"><path d="M4.396 11.38c5.281 0 8.171-4.38 8.171-8.171 0-.123 0-.246-.005-.37a5.85 5.85 0 0 0 1.433-1.49 5.82 5.82 0 0 1-1.652.454A2.89 2.89 0 0 0 13.61.213c-.554.33-1.17.565-1.826.694A2.866 2.866 0 0 0 9.69 0a2.875 2.875 0 0 0-2.8 3.528A8.155 8.155 0 0 1 .968.526a2.88 2.88 0 0 0 .89 3.836A2.905 2.905 0 0 1 .56 4.005v.04c0 1.388.991 2.553 2.302 2.816a2.8 2.8 0 0 1-.756.101c-.185 0-.364-.017-.538-.05a2.872 2.872 0 0 0 2.683 1.994A5.76 5.76 0 0 1 0 10.098a8.169 8.169 0 0 0 4.396 1.282" fill="#000" fill-rule="nonzero"/></svg>
